static/img/kroki/5c4b4e9c0f6b54905472be89a0a82c41.svg

<?xml version="1.0" encoding="us-ascii" standalone="no"?><svg xmlns="http://www.w3.org/2000/svg" xmlns:xlink="http://www.w3.org/1999/xlink" contentStyleType="text/css" height="374px" preserveAspectRatio="none" style="width:305px;height:374px;" version="1.1" viewBox="0 0 305 374" width="305px" zoomAndPan="magnify"><defs/><g><!--class account--><g id="elem_account"><rect codeLine="23" fill="#3D176E" height="39.7891" id="account" rx="2.5" ry="2.5" style="stroke:#000D19;stroke-width:0.5;" width="107" x="7" y="167.79"/><ellipse cx="22" cy="187.6845" fill="#ADD1B2" rx="11" ry="11" style="stroke:#181818;stroke-width:1.0;"/><path d="M24.9688,193.3252 Q24.3906,193.622 23.75,193.7627 Q23.1094,193.9189 22.4063,193.9189 Q19.9063,193.9189 18.5781,192.2783 Q17.2656,190.622 17.2656,187.497 Q17.2656,184.372 18.5781,182.7158 Q19.9063,181.0595 22.4063,181.0595 Q23.1094,181.0595 23.75,181.2158 Q24.4063,181.372 24.9688,181.6689 L24.9688,184.3877 Q24.3438,183.8095 23.75,183.5439 Q23.1563,183.2627 22.5313,183.2627 Q21.1875,183.2627 20.5,184.3408 Q19.8125,185.4033 19.8125,187.497 Q19.8125,189.5908 20.5,190.6689 Q21.1875,191.7314 22.5313,191.7314 Q23.1563,191.7314 23.75,191.4658 Q24.3438,191.1845 24.9688,190.6064 L24.9688,193.3252 Z " fill="#000000"/><text fill="#D9B8FF" font-family="Helvetica" font-size="17" lengthAdjust="spacing" textLength="65" x="41" y="193.5698">account</text></g><!--class gcp_project--><g id="elem_gcp_project"><rect codeLine="26" fill="#3D176E" height="39.7891" id="gcp_project" rx="2.5" ry="2.5" style="stroke:#000D19;stroke-width:0.5;" width="136" x="73.5" y="328.58"/><ellipse cx="88.5" cy="348.4745" fill="#ADD1B2" rx="11" ry="11" style="stroke:#181818;stroke-width:1.0;"/><path d="M91.4688,354.1152 Q90.8906,354.412 90.25,354.5527 Q89.6094,354.7089 88.9063,354.7089 Q86.4063,354.7089 85.0781,353.0683 Q83.7656,351.412 83.7656,348.287 Q83.7656,345.162 85.0781,343.5058 Q86.4063,341.8495 88.9063,341.8495 Q89.6094,341.8495 90.25,342.0058 Q90.9063,342.162 91.4688,342.4589 L91.4688,345.1777 Q90.8438,344.5995 90.25,344.3339 Q89.6563,344.0527 89.0313,344.0527 Q87.6875,344.0527 87,345.1308 Q86.3125,346.1933 86.3125,348.287 Q86.3125,350.3808 87,351.4589 Q87.6875,352.5214 89.0313,352.5214 Q89.6563,352.5214 90.25,352.2558 Q90.8438,351.9745 91.4688,351.3964 L91.4688,354.1152 Z " fill="#000000"/><text fill="#D9B8FF" font-family="Helvetica" font-size="17" lengthAdjust="spacing" textLength="94" x="107.5" y="354.3598">gcp_project</text></g><!--class gcp_resource--><g id="elem_gcp_resource"><rect codeLine="29" fill="#3D176E" height="39.7891" id="gcp_resource" rx="2.5" ry="2.5" style="stroke:#000D19;stroke-width:0.5;" width="150" x="148.5" y="167.79"/><ellipse cx="163.5" cy="187.6845" fill="#ADD1B2" rx="11" ry="11" style="stroke:#181818;stroke-width:1.0;"/><path d="M166.4688,193.3252 Q165.8906,193.622 165.25,193.7627 Q164.6094,193.9189 163.9063,193.9189 Q161.4063,193.9189 160.0781,192.2783 Q158.7656,190.622 158.7656,187.497 Q158.7656,184.372 160.0781,182.7158 Q161.4063,181.0595 163.9063,181.0595 Q164.6094,181.0595 165.25,181.2158 Q165.9063,181.372 166.4688,181.6689 L166.4688,184.3877 Q165.8438,183.8095 165.25,183.5439 Q164.6563,183.2627 164.0313,183.2627 Q162.6875,183.2627 162,184.3408 Q161.3125,185.4033 161.3125,187.497 Q161.3125,189.5908 162,190.6689 Q162.6875,191.7314 164.0313,191.7314 Q164.6563,191.7314 165.25,191.4658 Q165.8438,191.1845 166.4688,190.6064 L166.4688,193.3252 Z " fill="#000000"/><text fill="#D9B8FF" font-family="Helvetica" font-size="17" lengthAdjust="spacing" textLength="108" x="182.5" y="193.5698">gcp_resource</text></g><!--class resource--><g id="elem_resource"><rect codeLine="32" fill="#3D176E" height="39.7891" id="resource" rx="2.5" ry="2.5" style="stroke:#000D19;stroke-width:0.5;" width="113" x="85" y="7"/><ellipse cx="100" cy="26.8945" fill="#ADD1B2" rx="11" ry="11" style="stroke:#181818;stroke-width:1.0;"/><path d="M102.9688,32.5352 Q102.3906,32.832 101.75,32.9727 Q101.1094,33.1289 100.4063,33.1289 Q97.9063,33.1289 96.5781,31.4883 Q95.2656,29.832 95.2656,26.707 Q95.2656,23.582 96.5781,21.9258 Q97.9063,20.2695 100.4063,20.2695 Q101.1094,20.2695 101.75,20.4258 Q102.4063,20.582 102.9688,20.8789 L102.9688,23.5977 Q102.3438,23.0195 101.75,22.7539 Q101.1563,22.4727 100.5313,22.4727 Q99.1875,22.4727 98.5,23.5508 Q97.8125,24.6133 97.8125,26.707 Q97.8125,28.8008 98.5,29.8789 Q99.1875,30.9414 100.5313,30.9414 Q101.1563,30.9414 101.75,30.6758 Q102.3438,30.3945 102.9688,29.8164 L102.9688,32.5352 Z " fill="#000000"/><text fill="#D9B8FF" font-family="Helvetica" font-size="17" lengthAdjust="spacing" textLength="71" x="119" y="32.7798">resource</text></g><!--reverse link resource to account--><g id="link_resource_account"><path codeLine="35" d="M123.5501,63.084 C107.9801,93.604 85.9,136.9 70.31,167.46 " fill="none" id="resource-backto-account" style="stroke:#FFAF37;stroke-width:2.0;"/><polygon fill="none" points="131.73,47.05,118.2055,60.3574,128.8948,65.8106,131.73,47.05" style="stroke:#FFAF37;stroke-width:2.0;"/></g><!--reverse link account to gcp_project--><g id="link_account_gcp_project"><path codeLine="36" d="M78.4499,223.874 C94.0199,254.394 116.1,297.69 131.69,328.25 " fill="none" id="account-backto-gcp_project" style="stroke:#FFAF37;stroke-width:2.0;"/><polygon fill="none" points="70.27,207.84,73.1052,226.6006,83.7945,221.1474,70.27,207.84" style="stroke:#FFAF37;stroke-width:2.0;"/></g><!--reverse link gcp_resource to gcp_project--><g id="link_gcp_resource_gcp_project"><path codeLine="37" d="M205.3512,223.8335 C189.5912,254.3535 167.21,297.69 151.43,328.25 " fill="none" id="gcp_resource-backto-gcp_project" style="stroke:#FFAF37;stroke-width:2.0;"/><polygon fill="none" points="213.61,207.84,200.0201,221.0806,210.6824,226.5864,213.61,207.84" style="stroke:#FFAF37;stroke-width:2.0;"/></g><!--reverse link resource to gcp_resource--><g id="link_resource_gcp_resource"><path codeLine="38" d="M159.6488,63.0435 C175.4088,93.5635 197.79,136.9 213.57,167.46 " fill="none" id="resource-backto-gcp_resource" style="stroke:#FFAF37;stroke-width:2.0;"/><polygon fill="none" points="151.39,47.05,154.3176,65.7964,164.9799,60.2906,151.39,47.05" style="stroke:#FFAF37;stroke-width:2.0;"/></g><!--SRC=[XP3BQiCm54Jt-Wf1rWQxeNKCtQI1qcv2QRelidHbgxObSoKtf8z_RrB7GR7oM6hcC3DNfH90eMdTXZRGv82Ms4hfbY5hw1pHh1UcDaWdKZ8vJSVcez7kAh1a3T0dg3_1ASx6n5kfUAN1MdhZMG-CLmMQJei-tY7JTck1TXwrg9crS-TGvPq3Rup8yfcKOt8SEfcA9Bs303Ce0FT87CSYoSR8rQgBTn-8bVe2clYVjZGEWfb1nJzrSUMEy4O6Xmx-sOqlJ0Yb2thhQQ_z9jI0H_ggPCAiTxHajVLhh0C4upOjB8Ah89i9cPw4dy_1XE- -ZZBEjvwZtuJyxgM2j-yjcW_WWOnWJOSSVFrOExpkVw8e6kB9KDEhNWCvYWtj4zOWaJy0]--></g></svg>

<svg xmlns="http://www.w3.org/2000/svg" width="305" height="374" viewBox="0 0 305 374"><rect width="107" height="39.789" x="7" y="167.79" fill="#3D176E" rx="2.5" ry="2.5" style="stroke:#000d19;stroke-width:.5"/><circle cx="22" cy="187.685" r="11" fill="#ADD1B2" style="stroke:#181818;stroke-width:1"/><path d="M24.969 193.325q-.578.297-1.219.438-.64.156-1.344.156-2.5 0-3.828-1.64-1.312-1.657-1.312-4.782t1.312-4.781q1.328-1.656 3.828-1.656.703 0 1.344.156.656.156 1.219.453v2.719q-.625-.578-1.219-.844-.594-.281-1.219-.281-1.343 0-2.031 1.078-.687 1.062-.687 3.156t.687 3.172q.688 1.062 2.031 1.062.625 0 1.219-.265.594-.281 1.219-.86z"/><text x="41" y="193.57" fill="#D9B8FF" font-family="Helvetica" font-size="17" textLength="65">account</text><rect width="136" height="39.789" x="73.5" y="328.58" fill="#3D176E" rx="2.5" ry="2.5" style="stroke:#000d19;stroke-width:.5"/><circle cx="88.5" cy="348.474" r="11" fill="#ADD1B2" style="stroke:#181818;stroke-width:1"/><path d="M91.469 354.115q-.578.297-1.219.438-.64.156-1.344.156-2.5 0-3.828-1.64-1.312-1.657-1.312-4.782t1.312-4.781q1.328-1.656 3.828-1.656.703 0 1.344.156.656.156 1.219.453v2.719q-.625-.579-1.219-.844-.594-.281-1.219-.281-1.344 0-2.031 1.078-.687 1.062-.687 3.156t.687 3.172q.688 1.062 2.031 1.062.625 0 1.219-.265.594-.281 1.219-.86z"/><text x="107.5" y="354.36" fill="#D9B8FF" font-family="Helvetica" font-size="17" textLength="94">gcp_project</text><rect width="150" height="39.789" x="148.5" y="167.79" fill="#3D176E" rx="2.5" ry="2.5" style="stroke:#000d19;stroke-width:.5"/><circle cx="163.5" cy="187.685" r="11" fill="#ADD1B2" style="stroke:#181818;stroke-width:1"/><path d="M166.469 193.325q-.578.297-1.219.438-.64.156-1.344.156-2.5 0-3.828-1.64-1.312-1.657-1.312-4.782t1.312-4.781q1.328-1.656 3.828-1.656.703 0 1.344.156.656.156 1.219.453v2.719q-.625-.578-1.219-.844-.594-.281-1.219-.281-1.344 0-2.031 1.078-.687 1.062-.687 3.156t.687 3.172q.688 1.062 2.031 1.062.625 0 1.219-.265.594-.281 1.219-.86z"/><text x="182.5" y="193.57" fill="#D9B8FF" font-family="Helvetica" font-size="17" textLength="108">gcp_resource</text><rect width="113" height="39.789" x="85" y="7" fill="#3D176E" rx="2.5" ry="2.5" style="stroke:#000d19;stroke-width:.5"/><circle cx="100" cy="26.895" r="11" fill="#ADD1B2" style="stroke:#181818;stroke-width:1"/><path d="M102.969 32.535q-.578.297-1.219.438-.64.156-1.344.156-2.5 0-3.828-1.64-1.312-1.657-1.312-4.782t1.312-4.781q1.328-1.656 3.828-1.656.703 0 1.344.156.656.156 1.219.453v2.719q-.625-.578-1.219-.844-.594-.281-1.219-.281-1.344 0-2.031 1.078-.687 1.062-.687 3.156t.687 3.172q.688 1.062 2.031 1.062.625 0 1.219-.265.594-.281 1.219-.86z"/><text x="119" y="32.78" fill="#D9B8FF" font-family="Helvetica" font-size="17" textLength="71">resource</text><path fill="none" d="M123.55 63.084C107.98 93.604 85.9 136.9 70.31 167.46m61.42-120.41-13.524 13.307 10.689 5.454zM78.45 223.874c15.57 30.52 37.65 73.816 53.24 104.376M70.27 207.84l2.835 18.76 10.69-5.453zm135.081 15.994c-15.76 30.52-38.141 73.856-53.921 104.416m62.18-120.41-13.59 13.24 10.662 5.506zM159.649 63.044c15.76 30.52 38.141 73.856 53.921 104.416M151.39 47.05l2.928 18.746 10.662-5.505z" style="stroke:#ffaf37;stroke-width:2"/></svg>
